assets/images/tick.svg

<svg fill="none" height="68" viewBox="0 0 68 68" width="68" xmlns="http://www.w3.org/2000/svg" xmlns:xlink="http://www.w3.org/1999/xlink"><clipPath id="a"><path d="m0 0h68v68h-68z"/></clipPath><g clip-path="url(#a)"><path d="m31.608 46.217c-.3565.0031-.7094-.0718-1.0339-.2193-.3246-.1475-.613-.3641-.8451-.6347l-12.9-14.01c-.226-.2465-.401-.5353-.5151-.8496-.1141-.3144-.165-.6482-.1498-.9823.0153-.3341.0963-.6619.2386-.9645.1422-.3027.3428-.5743.5903-.7993.2475-.2249.5369-.3988.8517-.5116.3149-.1128.6489-.1623.9829-.1457s.6615.099.9636.2425c.302.1434.5728.3451.7968.5935l11.105 12.045 30.754-30.66798c.4797-.45439 1.1178-.70369 1.7785-.69487.6607.00881 1.2919.27506 1.7593.74209.4674.46704.7342 1.09796.7436 1.75866.0093.6607-.2394 1.299-.6934 1.7791l-32.633 32.55c-.2255.2505-.5027.4489-.8125.5817s-.6447.1967-.9815.1873z" fill="#4dcfe0"/><path d="m34 68c-9.0174 0-17.6654-3.5821-24.04163-9.9584-6.37624-6.3762-9.95837-15.0242-9.95837-24.0416s3.58213-17.6654 9.95837-24.04163c6.37623-6.37624 15.02423-9.95836897 24.04163-9.95836897.3383-.00624121.6744.05578867.9882.18238197.3137.126593.5988.315151.838.554402.2393.239251.4278.524285.5544.838065s.1886.64986.1824.98815c.0061.33821-.056.67418-.1827.98785-.1266.31366-.3152.59857-.5544.83771-.2393.23915-.5243.42762-.838.55415s-.6497.18853-.9879.18229c-5.7107.0002-11.293 1.69377-16.0412 4.86656-4.7481 3.17284-8.44881 7.68234-10.63409 12.95834s-2.757 11.0815-1.64286 16.6824c1.11415 5.6009 3.86411 10.7457 7.90215 14.7837 4.038 4.038 9.1828 6.788 14.7837 7.9021 5.6009 1.1142 11.4064.5425 16.6824-1.6428s9.7855-5.886 12.9583-10.6341c3.1728-4.7482 4.8664-10.3305 4.8666-16.0412-.0067-.3408.0546-.6795.1803-.9963.1258-.3167.3135-.6053.5521-.8487.2386-.2433.5234-.4367.8376-.5687.3142-.1319.6517-.1999.9925-.1999s.6783.068.9925.1999c.3142.132.599.3254.8376.5687.2386.2434.4263.532.5521.8487.1257.3168.187.6555.1803.9963-.0235 9.0101-3.6132 17.6445-9.9843 24.0157-6.3712 6.3711-15.0056 9.9608-24.0157 9.9843z" fill="#1185e0"/></g></svg>

<svg width="68" height="68" viewBox="0 0 68 68" fill="none" xmlns="http://www.w3.org/2000/svg">
<g clip-path="url(#clip0)">
<path d="M31.608 46.217C31.2515 46.2201 30.8986 46.1452 30.5741 45.9977C30.2495 45.8502 29.9611 45.6336 29.729 45.363L16.829 31.353C16.603 31.1065 16.428 30.8177 16.3139 30.5034C16.1998 30.189 16.1489 29.8552 16.1641 29.5211C16.1794 29.187 16.2604 28.8592 16.4027 28.5566C16.5449 28.2539 16.7455 27.9823 16.993 27.7573C17.2405 27.5324 17.5299 27.3585 17.8447 27.2457C18.1596 27.1329 18.4936 27.0834 18.8276 27.1C19.1616 27.1166 19.4891 27.199 19.7912 27.3425C20.0932 27.4859 20.364 27.6876 20.588 27.936L31.693 39.981L62.447 9.31302C62.9267 8.85863 63.5648 8.60933 64.2255 8.61815C64.8862 8.62696 65.5174 8.89321 65.9848 9.36024C66.4522 9.82728 66.719 10.4582 66.7284 11.1189C66.7377 11.7796 66.489 12.4179 66.035 12.898L33.402 45.448C33.1765 45.6985 32.8993 45.8969 32.5895 46.0297C32.2797 46.1625 31.9448 46.2264 31.608 46.217Z" fill="#4DCFE0"/>
<path d="M34 68C24.9826 68 16.3346 64.4179 9.95837 58.0416C3.58213 51.6654 0 43.0174 0 34C0 24.9826 3.58213 16.3346 9.95837 9.95837C16.3346 3.58213 24.9826 1.02748e-06 34 1.02748e-06C34.3383 -0.00624018 34.6744 0.0557897 34.9882 0.182383C35.3019 0.308976 35.587 0.497534 35.8262 0.736785C36.0655 0.976036 36.254 1.26107 36.3806 1.57485C36.5072 1.88863 36.5692 2.22471 36.563 2.563C36.5691 2.90121 36.507 3.23718 36.3803 3.55085C36.2537 3.86451 36.0651 4.14942 35.8259 4.38856C35.5866 4.62771 35.3016 4.81618 34.9879 4.94271C34.6742 5.06924 34.3382 5.13124 34 5.125C28.2893 5.1252 22.707 6.81877 17.9588 9.99156C13.2107 13.1644 9.50999 17.6739 7.32471 22.9499C5.13943 28.2259 4.56771 34.0314 5.68185 39.6323C6.796 45.2332 9.54596 50.378 13.584 54.416C17.622 58.454 22.7668 61.204 28.3677 62.3181C33.9686 63.4323 39.7741 62.8606 45.0501 60.6753C50.3261 58.49 54.8356 54.7893 58.0084 50.0412C61.1812 45.293 62.8748 39.7107 62.875 34C62.8683 33.6592 62.9296 33.3205 63.0553 33.0037C63.1811 32.687 63.3688 32.3984 63.6074 32.155C63.846 31.9117 64.1308 31.7183 64.445 31.5863C64.7592 31.4544 65.0967 31.3864 65.4375 31.3864C65.7783 31.3864 66.1158 31.4544 66.43 31.5863C66.7442 31.7183 67.029 31.9117 67.2676 32.155C67.5062 32.3984 67.6939 32.687 67.8197 33.0037C67.9454 33.3205 68.0067 33.6592 68 34C67.9765 43.0101 64.3868 51.6445 58.0157 58.0157C51.6445 64.3868 43.0101 67.9765 34 68Z" fill="#1185E0"/>
</g>
<defs>
<clipPath id="clip0">
<rect width="68" height="68" fill="white"/>
</clipPath>
</defs>
</svg>
